src/lib/packages/icons/src/assets/filled/wifi.svg

<svg width="24" height="24" viewBox="0 0 24 24" fill="none" xmlns="http://www.w3.org/2000/svg">
<path d="M14.999 17.019C14.788 17.019 14.576 16.953 14.395 16.815C13.022 15.773 10.977 15.773 9.60397 16.815C9.16297 17.15 8.53685 17.062 8.20285 16.623C7.86885 16.183 7.95499 15.556 8.39499 15.222C10.469 13.647 13.53 13.647 15.604 15.222C16.044 15.556 16.1299 16.183 15.7959 16.623C15.5999 16.882 15.302 17.019 14.999 17.019ZM18.758 13.881C19.118 13.462 19.07 12.831 18.653 12.471C16.806 10.884 14.4439 10.01 12.0009 10.01C9.55794 10.01 7.19509 10.884 5.34909 12.471C4.93109 12.831 4.88286 13.462 5.24386 13.881C5.60286 14.301 6.23502 14.347 6.65402 13.987C8.13602 12.712 10.0359 12.009 12.0019 12.009C13.9679 12.009 15.8671 12.711 17.3501 13.987C17.5391 14.149 17.7709 14.229 18.0019 14.229C18.2809 14.229 18.561 14.112 18.758 13.881ZM21.7451 11.11C22.1131 10.699 22.078 10.066 21.667 9.698C19.005 7.314 15.572 6 12 6C8.42797 6 4.99497 7.313 2.33297 9.698C1.92197 10.066 1.88685 10.699 2.25485 11.11C2.62385 11.522 3.25696 11.555 3.66696 11.188C5.96196 9.13299 8.92097 8.00101 12 8.00101C15.079 8.00101 18.038 9.13299 20.333 11.188C20.523 11.359 20.762 11.443 21 11.443C21.274 11.442 21.5481 11.33 21.7451 11.11ZM12 17.75C11.31 17.75 10.75 18.31 10.75 19C10.75 19.69 11.31 20.25 12 20.25C12.69 20.25 13.25 19.69 13.25 19C13.25 18.31 12.69 17.75 12 17.75Z" fill="currentColor"/>
</svg>

<svg xmlns="http://www.w3.org/2000/svg" width="24" height="24" fill="none"><path fill="currentColor" d="M14.999 17.019a.991.991 0 0 1-.604-.204c-1.373-1.042-3.418-1.042-4.791 0a1 1 0 1 1-1.209-1.593c2.074-1.575 5.135-1.575 7.209 0a1 1 0 0 1-.605 1.797Zm3.759-3.138c.36-.419.312-1.05-.105-1.41a10.21 10.21 0 0 0-6.652-2.461c-2.443 0-4.806.874-6.652 2.461a1 1 0 1 0 1.305 1.516 8.203 8.203 0 0 1 5.348-1.978 8.2 8.2 0 0 1 5.348 1.978.999.999 0 0 0 1.408-.106Zm2.987-2.771a1 1 0 0 0-.078-1.412A14.472 14.472 0 0 0 12 6a14.467 14.467 0 0 0-9.667 3.698 1 1 0 0 0 1.334 1.49A12.475 12.475 0 0 1 12 8.001c3.079 0 6.038 1.132 8.333 3.187a1.003 1.003 0 0 0 1.412-.078ZM12 17.75a1.25 1.25 0 1 0 0 2.5 1.25 1.25 0 0 0 0-2.5Z"/></svg>
